X:1405
T:Leg of the duck
O:ireland
T:Wee Murdie
O:ireland
S:FJ
R:Jig
M:6/8
K:D
A|\
f>ga e>fg|f>ef dBA|B>ee efe|B>ee e>de|\
f>ga e>fg|f>ef dBA|
B>dd dBA|B>dc d2 ::\
e|\
f>dd e>dd|f>ef dBA|
B>ee efe|B>ee e>de|\
f>dd e>dd|f>ef dBA|B>dd dBA|B>dc d2:|
